src/assets/images/icons/down-arrow.svg

<svg height="512pt" viewBox="0 0 512 512" width="512pt" xmlns="http://www.w3.org/2000/svg"><path d="m256 512c-68.378906 0-132.667969-26.628906-181.019531-74.980469-48.351563-48.351562-74.980469-112.640625-74.980469-181.019531s26.628906-132.667969 74.980469-181.019531c48.351562-48.351563 112.640625-74.980469 181.019531-74.980469s132.667969 26.628906 181.019531 74.980469c48.351563 48.351562 74.980469 112.640625 74.980469 181.019531s-26.628906 132.667969-74.980469 181.019531c-48.351562 48.351563-112.640625 74.980469-181.019531 74.980469zm0-472c-119.101562 0-216 96.898438-216 216s96.898438 216 216 216 216-96.898438 216-216-96.898438-216-216-216zm138.285156 182-28.285156-28.285156-110 110-110-110-28.285156 28.285156 138.285156 138.285156zm0 0"/></svg>

<svg height="512pt" viewBox="0 0 512 512" width="512pt" xmlns="http://www.w3.org/2000/svg"><path d="M256 512c-68.379 0-132.668-26.629-181.02-74.98C26.63 388.668 0 324.379 0 256S26.629 123.332 74.98 74.98C123.332 26.63 187.621 0 256 0s132.668 26.629 181.02 74.98C485.37 123.332 512 187.621 512 256s-26.629 132.668-74.98 181.02C388.668 485.37 324.379 512 256 512zm0-472C136.898 40 40 136.898 40 256s96.898 216 216 216 216-96.898 216-216S375.102 40 256 40zm138.285 182L366 193.715l-110 110-110-110L117.715 222 256 360.285zm0 0"/></svg>
